X:412
T:Cochinelle
Z:Jack Campin, http://www.campin.me.uk/
F:Jack Campin's Nine-Note Tunebook
% last edit 03-02-2013
C:Jean Blanchard
S:Cam-French Tune Book
M:3/8
L:1/16
Q:3/8=66
K:C
EF|G2c2B2|A2G2F2|GAGFDF|E2CDEF|G2c2B2|A2G2F2|GAGFDE|   C4  :|
EF|GECAFD|GECAFD|GAGFDF|E2CDEF|GECAFD|GECAFD|GAGFDE|[1 C2CD:|\
                                                    [2 C4  |]

